!!!!SEGMENT: pl-lzu--m-15111--001-010_noskowski-zygmunt--spiewnik-dla-dzieci-op-34-10-taniec.krn
!!!cenid: 18xx:4707
!!!COM: Noskowski, Zygmunt
!!!COM-rismID: pe106604
!!!CDT: 1846/05/02-1909/07/23
!!!CNT: Polish
!!!GTL: Śpiewnik dla dzieci, op. 34
!!!OTL: 10. Taniec
!!!OMV: 010
!!!PDT: 1890
!!!AGN: Secular; Song; Children
!!!YEC: Copyright 2022 Narodowy Instytut Fryderyka Chopina (https://polishscores.org)
!!!YEM: License CC-BY-4.0 (https://creativecommons.org/licenses/by/4.0)
!!!SMS-siglum: PL-LŹu
!!!SMS-shelfmark: M 15111
!!!SMS-variant:
!!!SMS-altvar:
!!!SMS-shelfwork: 001-010 G
!!!NIFC-rismSourceID: 1001234040
!!!NIFC-rismChildID: 1001234040
!!!NIFC-islandoraID: pl-lzu:5455
!!!URL-pdf-islandora: https://repozytorium.nifc.pl/islandora/object/pl-lzu%3A5455/datastream/PDF/view
!!!URL-scan: https://polish.musicsources.pl/pl/lokalizacje/galeria/druki-muzyczne/23228/16 @EN{Scan on Polish Music Sources Website} @PL{Skany w portalu Dziedzictwo Muzyki Polskiej w otwartym dostępie}
!!!IIIF:
!!!ONB-nifc:
!!!AIN: 1 piano 1 vox
!!!key: B-
!!!OMD: Poco allegro.
**kern	**kern	**dynam	**kern	**text	**dynam
*part2	*part2	*part2	*part1	*part1	*part1
*staff3	*staff2	*staff2/3	*staff1	*staff1	*staff1
*I"[Piano]	*I"[Piano]	*	*I"[Voice]	*	*
*I'pf	*I'pf	*	*I'V	*	*
*Ipiano	*Ipiano	*	*Ivox	*	*
*ICklav	*ICklav	*	*ICvox	*	*
*IGacmp	*IGacmp	*	*IGsolo	*	*
*>[A,B,C,B]	*>[A,B,C,B]	*>[A,B,C,B]	*>[A,B,C,B]	*>[A,B,C,B]	*>[A,B,C,B]
*>A	*>A	*>A	*>A	*>A	*>A
*clefF4	*clefG2	*	*clefG2	*	*
*k[b-e-]	*k[b-e-]	*	*k[b-e-]	*	*
*B-:	*B-:	*	*B-:	*	*
*M3/4	*M3/4	*	*M3/4	*	*
=1	=1	=1	=1	=1	=1
!	!LO:TX:a:i:t=Tempo Mazura.	!LO:DY:rj	!	!	!
8.FL 8.BB-\	8.fL 8.d/	f	2.r	.	.
16FJk 16BB-\	16gJk 16d/	.	.	.	.
4F 4BB-\	4f 4d/	.	.	.	.
4F 4BB-\	4g 4d/	.	.	.	.
=2	=2	=2	=2	=2	=2
4F 4BB-\	4f 4d/	.	2.r	.	.
4F 4BB-\	4g 4d/	.	.	.	.
4F 4BB-\	4f 4d/	.	.	.	.
=3||	=3||	=3||	=3||	=3||	=3||
*>B	*>B	*>B	*>B	*>B	*>B
!	!	!	!LO:TX:a:rj:t=[segno]	!	!
!	!	!LO:DY:rj	!LO:TX:a:i:t=Chór.	!	!LO:DY:rj
4BB-/	8gL 8d/	f	8g 8d/	Da-	f
.	8fJ 8d/	.	8f 8d/	-lej	.
4B- 4F\	4dd 4d/	.	4dd 4d/	ra-	.
4B- 4F\	4b- 4d/	.	4b- 4d/	-źno,	.
=4	=4	=4	=4	=4	=4
4BB-/	8gL 8e-/	.	8g 8e-/	da-	.
.	8b-J 8e-/	.	8b- 8e-/	-lej	.
4c 4F\	4a 4e-/	.	4a 4e-/	w ko-	.
4c 4F\	4f 4e-/	.	4f 4e-/	-ło,	.
=5	=5	=5	=5	=5	=5
4BB-/	8gL 8d/	.	8g 8d/	Da-	.
.	8aJ 8d/	.	8a 8d/	-lej	.
4B- 4F\	4b- 4d/	.	4b- 4d/	wszys-	.
4B- 4F\	4dd 4f/	.	4dd 4f/	-cy	.
!!LO:LB:g=original
=6	=6	=6	=6	=6	=6
4DD/	2ff 2b-\	.	2ff 2b-^\	wraz!	.
4B- 4D\	.	.	.	.	.
4d 4F\	4ryy	.	4r	.	.
=7	=7	=7	=7	=7	=7
*	*	*	*^	*	*
4FF/	8ccL 8a\	.	8cc 8a/	2ryy	Wszak	.
.	8ddJ 8g\	.	8dd 8g/	.	wy-	.
4A 4F\	4ee- 4f\	.	4ee- 4f/	.	-sko-	.
4c 4F\	8gL 8e-/	.	(<8g/L	4e-\	-czyć	.
.	8a/J	.	8a/J)	.	.	.
*	*	*	*v	*v	*	*
=8	=8	=8	=8	=8	=8
4BB-/	8b-L 8d/	.	8b- 8d/	i	.
.	8ccJ 8e-/	.	8cc 8e-/	za-	.
4B- 4F\	4.dd 4.f/	.	4.dd 4.f^>/	-śpie-	.
4B- 4F\	.	.	.	.	.
.	8cc 8f/	.	8cc 8f,/	-wać	.
=9	=9	=9	=9	=9	=9
4GG/	8b-L 8g/	.	8b- 8g/	U-	.
.	8aJ 8f/	.	8a 8f/	-mie	.
4B- 4C\	4g 4en/	.	4g 4en/	ka-	.
4B- 4C\	4cc 4e/	.	4cc 4e/	-żdy	.
=10	=10	=10	=10	=10	=10
4A 4F\	2.a 2.f/	.	2.a 2.f/	z nas.	.
4C/	.	.	.	.	.
4F\	.	.	.	.	.
!!LO:PB:g=original
=11	=11	=11	=11	=11	=11
4FF/	8gL 8e-X/	.	8g 8e-X/	Wszak	.
.	8fJ 8e-/	.	8f 8e-/	wy-	.
4c 4F\	4a 4f/	.	4a 4f/	-sko-	.
4e- 4F\	4cc 4a\	.	4cc 4a/	-czyć	.
=12	=12	=12	=12	=12	=12
*	*	*	*^	*	*
4BB-/	8ddL 8b-\	.	8dd 8b-\	2ryy	i	.
.	8ee-J 8cc\	.	8ee- 8cc\	.	za-	.
4d 4F\	4.ff 4.dd^\	.	4.ff 4.dd^\	.	-śpie-	.
4d 4F\	.	.	.	8ryy	.	.
.	8b-\	.	8b-,/	8b-\	-wać	.
*	*	*	*v	*v	*	*
=13	=13	=13	=13	=13	=13
4FF/	8ccL 8a\	.	8cc 8a/	U-	.
.	8ddJ 8g\	.	8dd 8g/	-mie	.
4c 4A\	4ee- 4f\	.	4ee- 4f/	ka-	.
4e- 4F\	8ddL 8g\	.	(8ddL 8g/	-żdy	.
.	8ccJ 8a\	.	8ccJ 8a/)	.	.
=14	=14	=14	=14	=14	=14
*	*	*	*^	*	*
4d 4B-\	4b-\	.	2b-/	2b-\	z nas!	.
!	!	!LO:DY:t=sfs	!	!	!	!
4BB- 4BBB-/	4bb- 4ff 4dd 4b-\	sf	.	.	.	.
!	!	!	!LO:TX:a:i:t=Fine.	!	!	!
4r	4r	.	4r	4ryy	.	.
*	*	*	*v	*v	*	*
!!LO:LB:g=original
=15||	=15||	=15||	=15||	=15||	=15||
*>C	*>C	*>C	*>C	*>C	*>C
!	!	!LO:DY:rj	!LO:TX:a:i:t=Jeden głos.	!	!LO:DY:rj
2D 2GG/	4.dd 4.b- 4.g 4.d^>/	f	4.dd^\	Graj	f
.	8g/L	p	8g/	nam	.
4D 4GG/	8b- 8d/	.	8b-/	skrzyp-	.
.	8b-J 8d/	.	8b-/	-ku	.
=16	=16	=16	=16	=16	=16
4D 4GG/	8aL 8c/	.	8a/	kra-	.
.	8f#X/J	.	8f#X/	-ko-	.
4D 4GG/	4g 4B-/	.	4g/	-wia-	.
4D 4GG/	4b- 4d/	.	4b-,/	-ka,	.
=17	=17	=17	=17	=17	=17
!	!	!LO:DY:rj	!	!	!
2D 2GG/	4.dd 4.b- 4.g 4.d^/	f	4.dd^\	A	.
.	8g/L	p	8g/	zaś	.
4D 4GG/	8b- 8d/	.	8b-/	po-	.
.	8b-J 8d/	.	8b-/	-tem	.
=18	=18	=18	=18	=18	=18
4D 4GG/	8aL 8c/	.	8a/	ku-	.
.	8f#X/J	.	8f#X/	-ja-	.
4D 4GG/	4g 4B-/	.	4g/	-wia-	.
4D 4GG/	4b- 4d/	.	4b-/	-ka,	.
!!LO:LB:g=original
=19	=19	=19	=19	=19	=19
4D 4DD/	8aL 8c/	.	8a/	I	.
.	8f#X/J	.	8f#X/	ma-	.
4D 4DD/	4d 4c/	.	4d/	-zu-	.
4D 4DD/	4f# 4c/	.	4f#/	-ra	.
=20	=20	=20	=20	=20	=20
4D 4GG/	2g 2B-/	.	2g/	graj!	.
4Fn 4FFn/	.	.	.	.	.
4En 4EEn/	4g 4c 4B-/	.	4r	.	.
=21	=21	=21	=21	=21	=21
!	!	!LO:DY:rj	!	!	!
2F 2C 2FF/	4.cc 4.a 4.fn 4.c/	f	4.cc^\	Jak	.
.	8f/L	p	8f/	się	.
4C 4FF/	8a 8c/	.	8a/	do-	.
.	8aJ 8c/	.	8a/	-brze	.
=22	=22	=22	=22	=22	=22
4C 4FF/	8gL 8B-/	.	8g/	za-	.
.	8en/J	.	8en/	-po-	.
4C 4FF/	4f 4A/	.	4f/	-ci-	.
4C 4FF/	4a 4c/	.	4a/	-my,	.
!!LO:PB:g=original
=23	=23	=23	=23	=23	=23
2C 2FF/	4.cc 4.a 4.f 4.c/	p	4.cc^\	To	.
.	8f/L	p	8f/	pol-	.
4C 4FF/	8a 8c/	.	8a/	-skie-	.
.	8aJ 8c/	.	8a/	-go	.
=24	=24	=24	=24	=24	=24
*	*^	*	*	*	*
4C 4FF/	8g/L	4B-\	.	8g/	sie	.
.	8en/J	.	.	8en/	pu-	.
4C 4FF/	4f 4A/	2ryy	.	4f/	-ści-	.
4C 4FF/	4a 4c/	.	.	4a/	-my,	.
*	*v	*v	*	*	*	*
=25	=25	=25	=25	=25	=25
4C 4CC/	(8gL 8B-/	.	8g/	Toż	.
.	8a/J)	.	8a/	to	.
4C 4CC/	4b- 4en 4B-/	.	4b-/	bę-	.
4C 4CC/	(8aL 8e 8B-/	.	(8a/L	-dzie	.
.	8g/J)	.	8g/J)	.	.
=26	=26	=26	=26	=26	=26
4C 4FF/	2.f 2.A/	.	2.f/	raj!	.
4C 4FF/	.	.	.	.	.
4C 4FF/	.	.	.	.	.
!!LO:LB:g=original
=27	=27	=27	=27	=27	=27
*	*	*	*^	*	*
!	!	!	!LO:TX:a:i:t=Chór	!	!	!
8.F\L	8.f/L	.	8.f/	8.f\	Hop!	.
16F\Jk	16f/Jk	.	16f/	16f\	sa!	.
4F\	4f/	.	4f/	4f\	sa!	.
4F\	4f/	.	4f/	4f\	sa!	.
=28	=28	=28	=28	=28	=28	=28
8.F\L	8.f/L	.	8.f/	8.f\	Hop!	.
!	!	!LO:HP:t=crescendo	!	!	!	!LO:HP:t=crescendo
16F\Jk	16f/Jk	<	16f/	16f\	sa!	<
4F\	4f/	.	4f/	4f\	sa!	.
4F\	4f/	.	4f/	4f\	sa!	.
=29	=29	=29	=29	=29	=29	=29
4F\	4f/	.	4f/	4f\	Hop!	.
4F 4FF/	4f 4A/	.	4f/	4f\	hop!	.
4F 4FF/	4f 4B-/	.	4f/	4f\	hop!	.
=30	=30	=30	=30	=30	=30	=30
4F 4GG#X/	4f 4Bn/	.	4f/	4f\	Hop!	.
4F 4AA/	4f 4c/	.	4f/	4f\	hop!	.
!	!	!	!LO:TX:rj:t=[segno]	!	!	!
!LO:TX:b:i:rj:t=D. S. al Fine	!	!	!LO:TX:a:i:t=D.S.	!	!	!
4F 4AA/	4f 4e- 4c/	.	4f/	4f\	hop!	.
*	*	*	*v	*v	*	*
==	==	==	==	==	==
*-	*-	*-	*-	*-	*-
!!!system-decoration: p1{p2}
!!!RDF**kern: > = above
!!!RDF**kern: < = below
!!!ENC: Andrzej Gręziak
!!!END: 2025-03-04
!!!ENC: Marta Lawrence
!!!END: 2025-03-20
